Cloud/dashboard/static/tracks/circuit_of_the_americas.svg

<?xml version="1.0" encoding="UTF-8"?>
<!-- Uploaded to: SVG Find, www.svgfind.com, Generator: SVG Find Mixer Tools -->
<svg fill="#000000" width="800px" height="800px" version="1.1" viewBox="144 144 512 512" xmlns="http://www.w3.org/2000/svg">
 <path d="m612.3 194.41c-3.082-4.1289-9.5469-4.9141-13.484-1.4766-105.33 91.645-189.15 139.16-270.21 185.1l-1.4258 0.80859c-2.6445 1.4961-4.3008 4.207-4.4297 7.25-0.125 3.0664 1.3086 5.9258 3.8438 7.6562 9.9609 6.7969 17.961 11.781 24.387 15.789 9.3984 5.8594 15.324 9.5508 18.98 13.68l-12.062 5.3867c-1.3281 0.59375-2.5117 0.89453-3.5234 0.89453-1.2305 0-2.9258-0.39844-5.1094-3.5078l-4.543-6.4727c-1.3711-1.9492-3.2461-3.4844-5.4258-4.4414l-11.711-5.1562c-2.9453-1.3008-6.3008-1.4648-9.3555-0.45312l-11.332 3.7344c-3.0859 1.0117-5.3164 3.5234-5.9648 6.707-0.64453 3.1562 0.46094 6.4375 2.8867 8.5586 6.7812 5.9414 14.008 10.777 20.996 15.449 7.7812 5.207 15.141 10.129 20.238 15.633 1 1.7539 5.6484 10.676 4.7266 22.781-0.14453 1.8984-0.90234 3.7695-2.1289 5.2656-3.4062 4.1602-9.9336 11.777-15.34 16.066-1.0156 0.80859-2.1797 1.3789-3.4609 1.7031-2.7227 0.68359-8.3008 1.832-15.094 1.832-3.0938 0-6.1406-0.23437-9.0664-0.70312-0.99219-0.16016-2.0195-0.55469-3.0547-1.1719l-47.176-28.219c-5.5938-3.3438-13.297-2.2422-17.727 2.5195l-48.008 51.578c-2.5391 2.7266-3.4609 6.4961-2.4609 10.086 0.99609 3.5898 3.7305 6.3438 7.3125 7.3711l20.879 5.9727-2.793 9.2852 40.09 12.055 2.457 4.2031 15.5-4.0039-10.926-3.2852-40.918-12.305 1.3789-4.582 184.91 52.887c0.79688 0.22656 1.6172 0.34375 2.4297 0.34375h0.003906c3.1875 0 6.1211-1.7656 7.6484-4.6094 1.5312-2.8438 1.375-6.1602-0.41797-8.8711-4.8398-7.3203-12.867-18.434-23.621-29.824-15.621-16.547-17.617-29.258-6.8828-43.875 8.6406-11.766 21.18-28.102 27.887-36.793 2.4922-3.2266 3.875-7.0898 4-11.176l0.46484-15c0.16406-5.3125 2.5469-10.375 6.5352-13.887l0.71094-0.625c7.3398-6.4648 10.461-16.387 8.1445-25.891l-3.3555-13.773c-0.47266-1.9336-0.17188-3.9688 0.83984-5.7344 2.6094-4.5352 8.0195-12.973 14.957-18.523 1.5664-1.25 3.6758-1.9414 5.9453-1.9414l26.691 1.2812 0.95312 0.023437c8.2461 0 15.66-5.2148 18.453-12.969l8.3086-23.078c1.5781-4.3867 5.7734-7.3281 10.438-7.3281 1.9336 0 3.7734 0.49219 5.4766 1.4688l7.6328 4.3633c3.168 1.8086 7.2773 1.625 10.262-0.46094l40.012-27.898c2.5664-1.793 4.4688-4.4336 5.3594-7.4414l30.699-104.14c0.82422-2.8281 0.30469-5.7852-1.4336-8.1094zm-38.824 109.43c-0.25 0.84766-0.78906 1.5938-1.5078 2.0938l-39.633 27.879-7.6289-4.3633c-3.1836-1.8164-6.7852-2.7812-10.422-2.7812-8.8516 0-16.812 5.5898-19.805 13.91l-8.3086 23.078c-1.3711 3.8125-5.0117 6.375-9.5234 6.375h-0.03125l-26.148-1.2695-1.0273-0.023437c-4.5195 0-8.8398 1.4648-12.164 4.1211-7.8047 6.2461-13.754 15.047-17.367 21.336-2.293 3.9922-2.9609 8.625-1.8828 13.055l3.3555 13.773c1.4375 5.8945-0.5 12.051-5.0508 16.059l-0.71094 0.625c-6.0469 5.3242-9.6602 12.996-9.9062 21.051l-0.46484 15c-0.0625 1.9766-0.72656 3.8438-1.9258 5.4023-6.7344 8.7266-19.332 25.133-28.031 36.984-13.66 18.602-11.219 36.586 7.6719 56.602 8.9414 9.4688 15.91 18.746 20.617 25.602l-207.26-59.27c-0.085938-0.023437-0.35938-0.10156-0.46094-0.46484-0.10156-0.35938 0.09375-0.5625 0.15625-0.63281l48.012-51.574c0.80859-0.86719 1.9531-1.3633 3.1367-1.3633 0.76953 0 1.5273 0.21094 2.1914 0.60938l47.172 28.215c2.125 1.2695 4.3438 2.0977 6.5938 2.457 3.4414 0.55078 7.0195 0.82812 10.633 0.82812 7.4688 0 13.648-1.1602 17.52-2.1328 2.6641-0.67188 5.0938-1.8672 7.2266-3.5625 5.8203-4.625 12.375-12.098 16.848-17.555 2.5469-3.1055 4.0508-6.8477 4.3555-10.816 1.293-16.938-6.1289-28.723-6.4453-29.215l-0.5-0.65234c-5.9336-6.5586-13.938-11.914-22.41-17.582-6.2617-4.1875-12.723-8.5117-18.664-13.539l9.6562-3.1836c0.73047-0.23438 1.5156-0.19922 2.2266 0.10938l11.719 5.1602c0.51953 0.22656 0.96094 0.59375 1.2891 1.0547l4.5391 6.4688c5.293 7.5352 12.621 9.6562 20.84 5.9805l13.195-5.8906c2.668-1.1953 4.5664-3.3906 5.2148-6.0312 0.65625-2.6797-0.035157-5.5625-1.8984-7.9062-4.5898-5.7891-11.227-9.9219-22.223-16.773-6.0156-3.75-13.418-8.3633-22.508-14.52 80.934-45.875 164.62-93.348 269.73-184.5z"/>
</svg>

<?xml version="1.0" encoding="utf-8"?>
<svg fill="#000000" width="800px" height="800px" version="1.1" viewBox="144 144 512 512" xmlns="http://www.w3.org/2000/svg">
  <path d="M 612.3 194.41 C 609.218 190.281 602.753 189.496 598.816 192.933 C 493.486 284.578 409.666 332.093 328.606 378.033 L 327.18 378.842 C 324.536 380.338 322.879 383.049 322.75 386.092 C 322.625 389.158 324.059 392.018 326.594 393.748 C 336.555 400.545 344.555 405.529 350.981 409.537 C 360.38 415.397 366.305 419.088 369.961 423.217 L 357.899 428.604 C 356.571 429.198 355.388 429.498 354.376 429.498 C 353.145 429.498 351.45 429.1 349.266 425.991 L 344.723 419.518 C 343.352 417.569 341.477 416.034 339.298 415.077 L 327.587 409.92 C 324.641 408.62 321.286 408.456 318.231 409.467 L 306.899 413.202 C 303.813 414.213 301.583 416.725 300.934 419.909 C 300.29 423.065 301.395 426.346 303.821 428.467 C 310.602 434.409 317.829 439.244 324.817 443.916 C 332.598 449.123 339.958 454.045 345.055 459.549 C 346.055 461.303 350.703 470.225 349.782 482.33 C 349.637 484.229 348.879 486.1 347.653 487.596 C 344.247 491.756 337.719 499.373 332.313 503.662 C 331.297 504.47 330.133 505.041 328.852 505.365 C 326.129 506.048 320.551 507.197 313.758 507.197 C 310.664 507.197 307.617 506.963 304.691 506.494 C 303.699 506.334 302.672 505.939 301.637 505.322 L 254.461 477.103 C 248.867 473.759 241.164 474.861 236.734 479.622 L 188.726 531.2 C 186.187 533.927 185.265 537.696 186.265 541.286 C 187.261 544.876 189.995 547.63 193.577 548.657 L 404.155 608.884 C 404.952 609.111 405.772 609.228 406.585 609.228 L 406.589 609.228 C 409.776 609.228 412.71 607.463 414.237 604.619 C 415.768 601.775 415.612 598.459 413.819 595.748 C 408.979 588.427 400.952 577.314 390.198 565.924 C 374.577 549.377 372.581 536.666 383.315 522.049 C 391.956 510.283 404.495 493.947 411.202 485.256 C 413.695 482.029 415.077 478.166 415.202 474.08 L 415.667 459.08 C 415.831 453.767 418.214 448.705 422.202 445.193 L 422.913 444.568 C 430.253 438.103 433.374 428.181 431.058 418.677 L 427.702 404.904 C 427.23 402.97 427.531 400.935 428.542 399.169 C 431.152 394.634 436.562 386.196 443.499 380.646 C 445.066 379.396 447.175 378.705 449.445 378.705 L 476.136 379.986 L 477.089 380.01 C 485.335 380.01 492.749 374.795 495.542 367.041 L 503.85 343.963 C 505.428 339.576 509.624 336.634 514.288 336.634 C 516.222 336.634 518.062 337.127 519.765 338.103 L 527.398 342.467 C 530.566 344.275 534.675 344.092 537.66 342.006 L 577.672 314.108 C 580.238 312.315 582.141 309.674 583.031 306.666 L 613.73 202.526 C 614.554 199.698 614.035 196.741 612.297 194.417 L 612.3 194.41 Z M 573.476 303.84 C 573.226 304.688 572.687 305.434 571.968 305.934 L 532.335 333.813 L 524.706 329.449 C 521.523 327.633 517.921 326.668 514.284 326.668 C 505.433 326.668 497.472 332.258 494.479 340.578 L 486.171 363.656 C 484.8 367.469 481.159 370.031 476.647 370.031 L 476.616 370.031 L 450.468 368.762 L 449.441 368.738 C 444.921 368.738 440.601 370.203 437.277 372.859 C 429.472 379.106 423.523 387.906 419.91 394.195 C 417.617 398.188 416.949 402.82 418.027 407.25 L 421.382 421.023 C 422.82 426.918 420.882 433.074 416.332 437.082 L 415.621 437.707 C 409.574 443.032 405.96 450.703 405.714 458.758 L 405.25 473.758 C 405.187 475.735 404.523 477.602 403.324 479.161 C 396.589 487.887 383.992 504.294 375.293 516.145 C 361.633 534.747 364.074 552.731 382.965 572.747 C 391.906 582.216 398.875 591.493 403.582 598.349 L 196.322 539.079 C 196.236 539.055 195.962 538.977 195.861 538.614 C 195.759 538.255 195.955 538.051 196.017 537.981 L 244.029 486.407 C 244.838 485.54 245.982 485.044 247.166 485.044 C 247.935 485.044 248.693 485.255 249.357 485.653 L 296.529 513.868 C 298.654 515.138 300.873 515.966 303.123 516.325 C 306.564 516.876 310.142 517.153 313.756 517.153 C 321.225 517.153 327.404 515.993 331.276 515.02 C 333.94 514.349 336.37 513.153 338.503 511.458 C 344.323 506.833 350.878 499.36 355.351 493.903 C 357.897 490.797 359.401 487.055 359.706 483.087 C 360.999 466.149 353.577 454.364 353.261 453.872 L 352.761 453.22 C 346.827 446.661 338.823 441.306 330.351 435.638 C 324.089 431.45 317.628 427.126 311.687 422.099 L 321.343 418.915 C 322.073 418.681 322.859 418.716 323.57 419.024 L 335.289 424.185 C 335.808 424.411 336.249 424.778 336.578 425.239 L 341.117 431.708 C 346.41 439.243 353.738 441.364 361.957 437.689 L 375.152 431.798 C 377.82 430.603 379.718 428.407 380.367 425.767 C 381.023 423.087 380.331 420.204 378.468 417.861 C 373.878 412.072 367.241 407.939 356.245 401.088 C 350.23 397.338 342.827 392.724 333.737 386.568 C 414.671 340.693 498.357 293.22 603.467 202.068 L 573.476 303.84 Z"/>
</svg>
